src/components/icons/customers/logos/shopify.svg

<?xml version="1.0" encoding="UTF-8"?>
<svg width="160px" height="72px" viewBox="0 0 160 72" version="1.1" xmlns="http://www.w3.org/2000/svg" xmlns:xlink="http://www.w3.org/1999/xlink">
    <!-- Generator: Sketch 52.1 (67048) - http://www.bohemiancoding.com/sketch -->
    <title>customer/shopify</title>
    <desc>Created with Sketch.</desc>
    <g id="customer/shopify" stroke="none" stroke-width="1" fill="none" fill-rule="evenodd">
        <g id="shopify" transform="translate(0.000000, 13.000000)" fill="#7B7194">
            <g id="Group" transform="translate(45.100671, 8.590604)">
                <path d="M10.1297539,16.787472 C8.76957494,16.0357942 8.05369128,15.4272931 8.05369128,14.5682327 C8.05369128,13.458613 9.02013423,12.7785235 10.5592841,12.7785235 C12.3489933,12.7785235 13.9239374,13.5302013 13.9239374,13.5302013 L15.1767338,9.70022371 C15.1767338,9.70022371 14.0313199,8.80536913 10.6308725,8.80536913 C5.90604027,8.80536913 2.61297539,11.5257271 2.61297539,15.3199105 C2.61297539,17.4675615 4.15212528,19.114094 6.19239374,20.295302 C7.83892617,21.2259508 8.41163311,21.9060403 8.41163311,22.8724832 C8.41163311,23.9105145 7.58836689,24.7337808 6.049217,24.7337808 C3.75838926,24.7337808 1.61073826,23.5525727 1.61073826,23.5525727 L0.286353468,27.3825503 C0.286353468,27.3825503 2.29082774,28.7069351 5.6196868,28.7069351 C10.4876957,28.7069351 13.9597315,26.3087248 13.9597315,22.0134228 C14.0313199,19.6510067 12.2416107,18.0044743 10.1297539,16.787472 Z" id="s_2_"></path>
                <path d="M29.5302013,8.73378076 C27.1319911,8.73378076 25.2706935,9.87919463 23.803132,11.5973154 L23.7315436,11.5615213 L25.8076063,0.680089485 L20.4026846,0.680089485 L15.1409396,28.3489933 L20.5458613,28.3489933 L22.3355705,18.8993289 C23.0514541,15.3199105 24.8769575,13.1364653 26.5950783,13.1364653 C27.8120805,13.1364653 28.2774049,13.9597315 28.2774049,15.1409396 C28.2774049,15.8926174 28.2058166,16.787472 28.0268456,17.5391499 L25.9865772,28.3847875 L31.3914989,28.3847875 L33.5033557,17.2170022 C33.753915,16.0357942 33.8970917,14.639821 33.8970917,13.6733781 C33.9328859,10.5592841 32.3221477,8.73378076 29.5302013,8.73378076 Z" id="h_2_"></path>
                <path d="M46.1744966,8.73378076 C39.6599553,8.73378076 35.3288591,14.6040268 35.3288591,21.1543624 C35.3288591,25.3422819 37.9060403,28.7427293 42.7740492,28.7427293 C49.1812081,28.7427293 53.4765101,23.01566 53.4765101,16.3221477 C53.5123043,12.4205817 51.2572707,8.73378076 46.1744966,8.73378076 Z M43.5257271,24.5548098 C41.6644295,24.5548098 40.9127517,22.9798658 40.9127517,21.0111857 C40.9127517,17.8970917 42.5234899,12.8501119 45.458613,12.8501119 C47.3914989,12.8501119 48,14.4966443 48,16.1073826 C48,19.4720358 46.3892617,24.5548098 43.5257271,24.5548098 Z" id="o_1_" fill-rule="nonzero"></path>
                <path d="M67.3646532,8.73378076 C63.7136465,8.73378076 61.6375839,11.9552573 61.6375839,11.9552573 L61.5659955,11.9552573 L61.8881432,9.05592841 L57.0917226,9.05592841 C56.8411633,11.0246085 56.4116331,13.9955257 55.9821029,16.2505593 L52.2237136,36.0805369 L57.6286353,36.0805369 L59.1319911,28.0626398 L59.2393736,28.0626398 C59.2393736,28.0626398 60.3489933,28.7785235 62.4250559,28.7785235 C68.7964206,28.7785235 72.9485459,22.2639821 72.9485459,15.6778523 C72.9485459,11.9910515 71.3378076,8.73378076 67.3646532,8.73378076 Z M62.2102908,24.6621924 C60.8143177,24.6621924 59.9910515,23.8747204 59.9910515,23.8747204 L60.885906,18.8277405 C61.5302013,15.4630872 63.2841163,13.2080537 65.1454139,13.2080537 C66.7919463,13.2080537 67.2930649,14.7472036 67.2930649,16.1789709 C67.2930649,19.6510067 65.2170022,24.6621924 62.2102908,24.6621924 Z" id="p_1_" fill-rule="nonzero"></path>
                <path d="M80.6800895,0.93064877 C78.9619687,0.93064877 77.5659955,2.29082774 77.5659955,4.08053691 C77.5659955,5.69127517 78.5682327,6.80089485 80.1073826,6.80089485 L80.1789709,6.80089485 C81.8612975,6.80089485 83.3288591,5.65548098 83.3646532,3.65100671 C83.4004474,2.07606264 82.3266219,0.93064877 80.6800895,0.93064877 Z" id="dot_2_"></path>
                <polygon id="i_2_" points="73.0917226 28.3489933 78.5324385 28.3489933 82.2192394 9.16331096 76.7427293 9.16331096"></polygon>
                <path d="M95.9642058,9.0917226 L92.2058166,9.0917226 L92.3847875,8.19686801 C92.7069351,6.33557047 93.7807606,4.68903803 95.606264,4.68903803 C96.5727069,4.68903803 97.3243848,4.9753915 97.3243848,4.9753915 L98.3982103,0.751677852 C98.3982103,0.751677852 97.4675615,0.286353468 95.4630872,0.286353468 C93.5302013,0.286353468 91.6331096,0.823266219 90.1655481,2.07606264 C88.3042506,3.65100671 87.4451902,5.90604027 87.01566,8.19686801 L86.8724832,9.0917226 L84.3668904,9.0917226 L83.5794183,13.1722595 L86.0850112,13.1722595 L83.2214765,28.3131991 L88.6263982,28.3131991 L91.4899329,13.1722595 L95.212528,13.1722595 L95.9642058,9.0917226 Z" id="f_2_"></path>
                <path d="M108.993289,9.16331096 C108.993289,9.16331096 105.592841,17.6823266 104.089485,22.3355705 L104.017897,22.3355705 C103.910515,20.8322148 102.693512,9.16331096 102.693512,9.16331096 L97.0022371,9.16331096 L100.259508,26.7740492 C100.331096,27.1677852 100.295302,27.4183445 100.152125,27.6689038 C99.50783,28.885906 98.4697987,30.0671141 97.2170022,30.9261745 C96.2147651,31.6778523 95.0693512,32.1431767 94.1744966,32.4653244 L95.6778523,37.0469799 C96.787472,36.7964206 99.0425056,35.901566 100.975391,34.1118568 C103.44519,31.7852349 105.736018,28.2416107 108.06264,23.3736018 L114.684564,9.16331096 L108.993289,9.16331096 Z" id="y_2_"></path>
            </g>
            <g id="Group">
                <path d="M25.7718121,44.49217 L39.1588367,41.5928412 C39.1588367,41.5928412 34.3266219,8.91275168 34.2908277,8.69798658 C34.2550336,8.48322148 34.0760626,8.34004474 33.8970917,8.34004474 C33.7181208,8.34004474 30.3176734,8.08948546 30.3176734,8.08948546 C30.3176734,8.08948546 27.9552573,5.72706935 27.6689038,5.47651007 C27.5973154,5.4049217 27.5257271,5.36912752 27.4541387,5.33333333 L25.7718121,44.49217 Z" id="Path"></path>
                <path d="M26.8814318,5.26174497 C26.8456376,5.26174497 26.7740492,5.29753915 26.738255,5.29753915 C26.7024609,5.29753915 26.2013423,5.44071588 25.4138702,5.69127517 C24.6263982,3.40044743 23.2304251,1.2885906 20.7606264,1.2885906 C20.689038,1.2885906 20.6174497,1.2885906 20.5458613,1.2885906 C19.8299776,0.393736018 18.9709172,0 18.2192394,0 C12.4563758,0 9.70022371,7.19463087 8.84116331,10.8456376 C6.62192394,11.5257271 5.01118568,12.0268456 4.83221477,12.098434 C3.57941834,12.49217 3.54362416,12.5279642 3.40044743,13.7091723 C3.25727069,14.5682327 0,39.803132 0,39.803132 L25.163311,44.5279642 L26.8814318,5.26174497 Z M20.3310962,7.01565996 C20.3310962,7.08724832 20.3310962,7.19463087 20.3310962,7.26621924 C18.935123,7.69574944 17.3959732,8.16107383 15.8926174,8.62639821 C16.7516779,5.33333333 18.3624161,3.72259508 19.7583893,3.11409396 C20.1163311,4.04474273 20.3310962,5.29753915 20.3310962,7.01565996 Z M18.0402685,1.53914989 C18.2908277,1.53914989 18.541387,1.61073826 18.7919463,1.78970917 C16.966443,2.64876957 14.9619687,4.83221477 14.1387025,9.19910515 C12.9217002,9.59284116 11.7404922,9.950783 10.6308725,10.2729306 C11.5973154,6.94407159 13.9239374,1.53914989 18.0402685,1.53914989 Z M19.0425056,20.9753915 C19.0425056,20.9753915 17.5391499,20.1879195 15.7494407,20.1879195 C13.064877,20.1879195 12.9574944,21.8702461 12.9574944,22.2997763 C12.9574944,24.590604 18.9709172,25.4854586 18.9709172,30.8903803 C18.9709172,35.1498881 16.2863535,37.8702461 12.6353468,37.8702461 C8.26845638,37.8702461 6.049217,35.1498881 6.049217,35.1498881 L7.23042506,31.2841163 C7.23042506,31.2841163 9.5212528,33.2527964 11.4541387,33.2527964 C12.7069351,33.2527964 13.2438479,32.2505593 13.2438479,31.5346756 C13.2438479,28.5279642 8.30425056,28.3847875 8.30425056,23.4451902 C8.30425056,19.2930649 11.2751678,15.2483221 17.3243848,15.2483221 C19.6510067,15.2483221 20.7964206,15.9284116 20.7964206,15.9284116 L19.0425056,20.9753915 Z M21.3333333,2.86353468 C22.6219239,3.00671141 23.4451902,4.47427293 23.9821029,6.12080537 C23.3378076,6.33557047 22.6219239,6.55033557 21.8344519,6.80089485 C21.8344519,6.65771812 21.8344519,6.51454139 21.8344519,6.33557047 C21.8344519,4.93959732 21.655481,3.79418345 21.3333333,2.86353468 Z" id="Shape" fill-rule="nonzero"></path>
            </g>
        </g>
    </g>
</svg>

<svg width="160" height="72" viewBox="0 0 160 72" xmlns="http://www.w3.org/2000/svg"><title>customer/shopify</title><g transform="translate(0 13)" fill="#7B7194" fill-rule="evenodd"><g transform="translate(45.1 8.59)"><path d="M10.13 16.787c-1.36-.751-2.076-1.36-2.076-2.219 0-1.11.966-1.79 2.505-1.79 1.79 0 3.365.752 3.365.752l1.253-3.83s-1.146-.895-4.546-.895c-4.725 0-8.018 2.72-8.018 6.515 0 2.148 1.54 3.794 3.58 4.975 1.646.931 2.219 1.611 2.219 2.577 0 1.039-.824 1.862-2.363 1.862-2.29 0-4.438-1.181-4.438-1.181l-1.325 3.83s2.005 1.324 5.334 1.324c4.868 0 8.34-2.398 8.34-6.694.071-2.362-1.718-4.009-3.83-5.226zm19.4-8.053c-2.398 0-4.26 1.145-5.727 2.863l-.071-.035L25.808.68h-5.405L15.14 28.35h5.405l1.79-9.45c.715-3.58 2.541-5.763 4.26-5.763 1.216 0 1.681.824 1.681 2.005 0 .752-.071 1.646-.25 2.398l-2.04 10.846h5.404l2.112-11.168c.25-1.181.394-2.577.394-3.544.036-3.114-1.575-4.94-4.367-4.94z"/><path d="M46.174 8.734c-6.514 0-10.845 5.87-10.845 12.42 0 4.188 2.577 7.589 7.445 7.589 6.407 0 10.703-5.727 10.703-12.42.035-3.902-2.22-7.59-7.303-7.59zm-2.648 15.82c-1.862 0-2.613-1.574-2.613-3.543 0-3.114 1.61-8.16 4.546-8.16 1.932 0 2.541 1.646 2.541 3.256 0 3.365-1.61 8.448-4.474 8.448zm23.839-15.82c-3.651 0-5.727 3.221-5.727 3.221h-.072l.322-2.9h-4.796c-.25 1.97-.68 4.94-1.11 7.196l-3.758 19.83h5.405l1.503-8.018h.107s1.11.716 3.186.716c6.371 0 10.524-6.515 10.524-13.101 0-3.687-1.611-6.944-5.584-6.944zM62.21 24.662c-1.396 0-2.219-.787-2.219-.787l.895-5.047c.644-3.365 2.398-5.62 4.26-5.62 1.646 0 2.147 1.54 2.147 2.971 0 3.472-2.076 8.483-5.083 8.483z" fill-rule="nonzero"/><path d="M80.68.93c-1.718 0-3.114 1.36-3.114 3.15 0 1.611 1.002 2.72 2.541 2.72h.072c1.682 0 3.15-1.145 3.186-3.149.035-1.575-1.038-2.72-2.685-2.72z"/><path d="M73.0917226 28.3489933L78.5324385 28.3489933 82.2192394 9.16331096 76.7427293 9.16331096z"/><path d="M95.964 9.092h-3.758l.179-.895c.322-1.861 1.396-3.508 3.221-3.508.967 0 1.718.286 1.718.286L98.398.752s-.93-.466-2.935-.466c-1.933 0-3.83.537-5.297 1.79-1.862 1.575-2.72 3.83-3.15 6.12l-.144.896h-2.505l-.788 4.08h2.506l-2.864 15.141h5.405l2.864-15.14h3.723l.751-4.081zm13.03.071s-3.401 8.52-4.905 13.173h-.071c-.107-1.504-1.324-13.173-1.324-13.173h-5.692l3.258 17.611c.071.394.035.644-.108.895-.644 1.217-1.682 2.398-2.935 3.257-1.002.752-2.148 1.217-3.043 1.54l1.504 4.581c1.11-.25 3.365-1.145 5.297-2.935 2.47-2.327 4.761-5.87 7.088-10.738l6.622-14.21h-5.692z"/></g><path d="M25.772 44.492l13.387-2.9S34.327 8.913 34.29 8.699a.417.417 0 0 0-.394-.358c-.179 0-3.58-.25-3.58-.25s-2.362-2.363-2.648-2.613a.749.749 0 0 0-.215-.144l-1.682 39.16z"/><path d="M26.881 5.262c-.035 0-.107.036-.143.036-.036 0-.537.143-1.324.393-.788-2.29-2.184-4.402-4.653-4.402h-.215C19.83.394 18.97 0 18.219 0 12.456 0 9.7 7.195 8.841 10.846c-2.22.68-3.83 1.18-4.009 1.252-1.253.394-1.288.43-1.432 1.611-.143.86-3.4 26.094-3.4 26.094l25.163 4.725 1.718-39.266zm-6.55 1.754v.25c-1.396.43-2.935.895-4.438 1.36.859-3.293 2.47-4.903 3.865-5.512.358.93.573 2.184.573 3.902zm-2.29-5.477c.25 0 .5.072.75.25-1.825.86-3.829 3.043-4.652 7.41-1.217.394-2.399.752-3.508 1.074.966-3.329 3.293-8.734 7.41-8.734zm1.002 19.436s-1.504-.787-3.294-.787c-2.684 0-2.792 1.682-2.792 2.112 0 2.29 6.014 3.185 6.014 8.59 0 4.26-2.685 6.98-6.336 6.98-4.367 0-6.586-2.72-6.586-2.72l1.181-3.866s2.291 1.969 4.224 1.969c1.253 0 1.79-1.002 1.79-1.718 0-3.007-4.94-3.15-4.94-8.09 0-4.152 2.971-8.197 9.02-8.197 2.327 0 3.472.68 3.472.68l-1.753 5.047zm2.29-18.111c1.289.143 2.112 1.61 2.65 3.257-.645.215-1.361.43-2.149.68v-.465c0-1.396-.179-2.542-.5-3.472z" fill-rule="nonzero"/></g></svg>
